img/heading-einstellungen.svg

<?xml version="1.0" encoding="UTF-8" standalone="no"?>
<svg
   xmlns:dc="http://purl.org/dc/elements/1.1/"
   xmlns:cc="http://creativecommons.org/ns#"
   xmlns:rdf="http://www.w3.org/1999/02/22-rdf-syntax-ns#"
   xmlns:svg="http://www.w3.org/2000/svg"
   xmlns="http://www.w3.org/2000/svg"
   xmlns:sodipodi="http://sodipodi.sourceforge.net/DTD/sodipodi-0.dtd"
   xmlns:inkscape="http://www.inkscape.org/namespaces/inkscape"
   width="24"
   height="24"
   viewBox="0 0 24 24"
   version="1.1"
   id="svg7"
   sodipodi:docname="heading-einstellungen.svg"
   inkscape:version="0.92.3 (2405546, 2018-03-11)">
  <metadata
     id="metadata11">
    <rdf:RDF>
      <cc:Work
         rdf:about="">
        <dc:format>image/svg+xml</dc:format>
        <dc:type
           rdf:resource="http://purl.org/dc/dcmitype/StillImage" />
        <dc:title></dc:title>
      </cc:Work>
    </rdf:RDF>
  </metadata>
  <sodipodi:namedview
     pagecolor="#ffffff"
     bordercolor="#666666"
     borderopacity="1"
     objecttolerance="10"
     gridtolerance="10"
     guidetolerance="10"
     inkscape:pageopacity="0"
     inkscape:pageshadow="2"
     inkscape:window-width="1600"
     inkscape:window-height="849"
     id="namedview9"
     showgrid="true"
     inkscape:zoom="27.166667"
     inkscape:cx="12"
     inkscape:cy="12"
     inkscape:window-x="0"
     inkscape:window-y="24"
     inkscape:window-maximized="1"
     inkscape:current-layer="svg7">
    <inkscape:grid
       type="xygrid"
       id="grid818" />
  </sodipodi:namedview>
  <defs
     id="defs3">
    <style
       id="current-color-scheme"
       type="text/css">
   .ColorScheme-Text { color:#444444; } .ColorScheme-Highlight { color:#5294e2; }
  </style>
  </defs>
  <path
     style="fill:#212121;fill-opacity:1"
     class="ColorScheme-Text"
     d="M 6.25 1 L 6.0957031 2.84375 A 5.5 5.5 0 0 0 4.4882812 3.7734375 L 2.8125 2.984375 L 1.0625 6.015625 L 2.5839844 7.0722656 A 5.5 5.5 0 0 0 2.5 8 A 5.5 5.5 0 0 0 2.5800781 8.9316406 L 1.0625 9.984375 L 2.8125 13.015625 L 4.484375 12.228516 A 5.5 5.5 0 0 0 6.0957031 13.152344 L 6.2460938 15.001953 L 9.7460938 15.001953 L 9.9003906 13.158203 A 5.5 5.5 0 0 0 11.507812 12.228516 L 13.183594 13.017578 L 14.933594 9.9863281 L 13.412109 8.9296875 A 5.5 5.5 0 0 0 13.496094 8.0019531 A 5.5 5.5 0 0 0 13.416016 7.0703125 L 14.933594 6.0175781 L 13.183594 2.9863281 L 11.511719 3.7734375 A 5.5 5.5 0 0 0 9.9003906 2.8496094 L 9.75 1 L 6.25 1 z M 8 6 A 2 2 0 0 1 10 8 A 2 2 0 0 1 8 10 A 2 2 0 0 1 6 8 A 2 2 0 0 1 8 6 z"
     transform="translate(4 4)"
     id="path5" />
</svg>

<?xml version="1.0" encoding="UTF-8"?>
<svg width="24" height="24" version="1.1" viewBox="0 0 24 24" xmlns="http://www.w3.org/2000/svg">
<metadata>
<rdf:RDF xmlns:rdf="http://www.w3.org/1999/02/22-rdf-syntax-ns#" xmlns:rdfs="http://www.w3.org/2000/01/rdf-schema#" xmlns:dc="http://purl.org/dc/elements/1.1/"><rdf:Description dc:publisher="Papirus Development Team" dc:rights="GNU General Public License v3.0"></rdf:Description></rdf:RDF>
</metadata>
<path transform="translate(4 4)" d="m6.25 1-0.1543 1.8438a5.5 5.5 0 0 0-1.6074 0.92969l-1.6758-0.78906-1.75 3.0312 1.5215 1.0566a5.5 5.5 0 0 0-0.083984 0.92773 5.5 5.5 0 0 0 0.080078 0.93164l-1.5176 1.0527 1.75 3.0312 1.6719-0.78711a5.5 5.5 0 0 0 1.6113 0.92383l0.15039 1.8496h3.5l0.1543-1.8438a5.5 5.5 0 0 0 1.6074-0.92969l1.6758 0.78906 1.75-3.0312-1.5215-1.0566a5.5 5.5 0 0 0 0.083985-0.92773 5.5 5.5 0 0 0-0.080078-0.93164l1.5176-1.0527-1.75-3.0312-1.6719 0.78711a5.5 5.5 0 0 0-1.6113-0.92383l-0.15039-1.8496h-3.5zm1.75 5a2 2 0 0 1 2 2 2 2 0 0 1-2 2 2 2 0 0 1-2-2 2 2 0 0 1 2-2z" fill="#212121"/>
</svg>
